X:82
T:?
M:2/2
L:1/8
S:Mike Simpson, Atlanta, GA
R:Reel
K:G
DG~G2 DCB,G,|A,B,CD EFGE|DG~G2 BGAc|Bdgd edgd| DG~G2 DCB,G,|A,B,CD
EFGE|DG~G2 BGAc|BdAc BGG2:|| ||:dggf gdBd|eaag a2ge|dg~g2 dcBc|A=FcF dFc
F|
dggf gdBd|eaag a2ga|bgaf gedB|cBAc BGG2:||


